X: 4
T: Maho Snaps, The
Z: JACKB
S: https://thesession.org/tunes/811#setting25900
R: jig
M: 6/8
L: 1/8
K: Gmaj
|D|:"G"G3 GBd|"G"gdB GAB|"C"cBc "G"EFG|"D"AFd cBA|
"G"G3 GBd|"G"gdB GAB|"Am"cAF "D"DFA|[1"G"AGF G2D:|[2"G"AGF G2B|]
|:"G"dB/^c/d ede|"C"fef gfe|"G"dB/c/d "Em"efg|"D"fd^c d2A|
"G"dAA "C"eAA|"Bm"fAA "Em"gfe|"G"dfa "D"agf|[1"G"gdB G2B:|[2"G"gdB G3|]
